src/android-textsms.svg

<?xml version="1.0" encoding="utf-8"?>
<!-- Generated by IcoMoon.io -->
<!DOCTYPE svg PUBLIC "-//W3C//DTD SVG 1.1//EN" "http://www.w3.org/Graphics/SVG/1.1/DTD/svg11.dtd">
<svg version="1.1" xmlns="http://www.w3.org/2000/svg" xmlns:xlink="http://www.w3.org/1999/xlink" width="512" height="512" viewBox="0 0 512 512">
<path fill="#000000" d="M408 64h-312c-22.002 0-32 17.998-32 40v344l64-64h280c22.002 0 40-17.998 40-40v-240c0-22.002-17.998-40-40-40zM198.4 242h-38.4v-40h38.4v40zM275.2 242h-38.4v-40h38.4v40zM352 242h-38.4v-40h38.4v40z"></path>
</svg>

<?xml version="1.0" encoding="utf-8"?>
<!-- Generator: Adobe Illustrator 16.2.1, SVG Export Plug-In . SVG Version: 6.00 Build 0)  -->
<!DOCTYPE svg PUBLIC "-//W3C//DTD SVG 1.1//EN" "http://www.w3.org/Graphics/SVG/1.1/DTD/svg11.dtd">
<svg version="1.1" id="Layer_1" xmlns="http://www.w3.org/2000/svg" xmlns:xlink="http://www.w3.org/1999/xlink" x="0px" y="0px"
	 width="512px" height="512px" viewBox="0 0 512 512" enable-background="new 0 0 512 512" xml:space="preserve">
<g>
	<path d="M408,64H96c-22.002,0-32,17.998-32,40v344l64-64h280c22.002,0,40-17.998,40-40V104C448,81.998,430.002,64,408,64z
		 M198.4,242H160v-40h38.4V242z M275.2,242h-38.4v-40h38.4V242z M352,242h-38.4v-40H352V242z"/>
</g>
</svg>
